src/assets/icons/gift.svg

<svg version="1.1" xmlns="http://www.w3.org/2000/svg" xmlns:xlink="http://www.w3.org/1999/xlink" width="556.5px" height="576.72px" viewBox="0,0,247.0125,256"><g fill="none" fill-rule="nonzero" stroke="#c8a2c8" stroke-width="17" stroke-linecap="none" stroke-linejoin="none" stroke-miterlimit="10" stroke-dasharray="" stroke-dashoffset="0" font-family="none" font-weight="none" font-size="none" text-anchor="none" style="mix-blend-mode: normal"><g transform="translate(-0.00603,-0.00001) scale(0.44389,0.44389)"><g id="Capa_2"><g id="Capa_2-2"><path d="M90.25,364.93v-279.08c0,-9.73 7.46,-17.63 16.67,-17.63h342.66c9.21,0 16.67,7.9 16.67,17.63v279.08" stroke-linecap="butt" stroke-linejoin="miter"></path><path d="M466.25,180.45l81.75,74.77v296.54c0,9.09061 -7.36939,16.46 -16.46,16.46h-506.54c-4.37239,0.01063 -8.56934,-1.71886 -11.66484,-4.80686c-3.09551,-3.088 -4.83517,-7.28074 -4.83516,-11.65314v-296.54l81.75,-74.77" stroke-linecap="butt" stroke-linejoin="round"></path><path d="M213.98,68.22l65.29,-59.72l65.3,59.72" stroke-linecap="butt" stroke-linejoin="round"></path><path d="M58.8,331.73l61.28,55.92h319.4l58.22,-55.92" stroke-linecap="round" stroke-linejoin="round"></path><path d="M507.44,491.05l-58.06,-111.67" stroke-linecap="round" stroke-linejoin="round"></path><path d="M49.06,491.05l58.06,-111.67" stroke-linecap="round" stroke-linejoin="round"></path><rect x="180.97" y="183.9" width="194.55" height="35.49" rx="8.43" ry="0" stroke-linecap="round" stroke-linejoin="round"></rect><path d="M354.68,221.61v87.83c0.01063,4.3883 -1.72518,8.60051 -4.82443,11.70727c-3.09925,3.10676 -7.30725,4.85274 -11.69557,4.85273h-119.82c-9.11984,0 -16.51448,-7.39016 -16.52,-16.51v-87.88" stroke-linecap="round" stroke-linejoin="round"></path><path d="M278.25,325.95v-142.05" stroke-linecap="round" stroke-linejoin="round"></path><path d="M262.57,183.9c0,0 -33.23,-17.43 -18.9,-33.7c9.45,-10.72 33.22,16.85 33.22,16.85" stroke-linecap="round" stroke-linejoin="round"></path><path d="M276.89,183.9c0,0 3,-55.66 45.42,-49.78c0,0 10,28.34 -26.55,49.78" stroke-linecap="round" stroke-linejoin="round"></path></g></g></g></g></svg>

<svg xmlns="http://www.w3.org/2000/svg" viewBox="0 0 556.5 576.72"><defs><style>.cls-1,.cls-2,.cls-3{fill:none;stroke:#85b185;stroke-width:17px;}.cls-1{stroke-miterlimit:10;}.cls-2,.cls-3{stroke-linejoin:round;}.cls-3{stroke-linecap:round;}</style></defs><g id="Capa_2" data-name="Capa 2"><g id="Capa_2-2" data-name="Capa 2"><path class="cls-1" d="M90.25,364.93V85.85c0-9.73,7.46-17.63,16.67-17.63H449.58c9.21,0,16.67,7.9,16.67,17.63V364.93"/><path class="cls-2" d="M466.25,180.45,548,255.22V551.76a16.46,16.46,0,0,1-16.46,16.46H25A16.46,16.46,0,0,1,8.5,551.76V255.22l81.75-74.77"/><polyline class="cls-2" points="213.98 68.22 279.27 8.5 344.57 68.22"/><polyline class="cls-3" points="58.8 331.73 120.08 387.65 439.48 387.65 497.7 331.73"/><line class="cls-3" x1="507.44" y1="491.05" x2="449.38" y2="379.38"/><line class="cls-3" x1="49.06" y1="491.05" x2="107.12" y2="379.38"/><rect class="cls-3" x="180.97" y="183.9" width="194.55" height="35.49" rx="8.43"/><path class="cls-3" d="M354.68,221.61v87.83A16.52,16.52,0,0,1,338.16,326H218.34a16.52,16.52,0,0,1-16.52-16.51V221.61"/><line class="cls-3" x1="278.25" y1="325.95" x2="278.25" y2="183.9"/><path class="cls-3" d="M262.57,183.9s-33.23-17.43-18.9-33.7c9.45-10.72,33.22,16.85,33.22,16.85"/><path class="cls-3" d="M276.89,183.9s3-55.66,45.42-49.78c0,0,10,28.34-26.55,49.78"/></g></g></svg>
